X:16071
%11453
T:Muses,The. GS.078
T:Three Meet,aka. GS.078
M:6/8
L:1/8
Q:1/4=120
S:George Spencer m/s, Leeds,1831
R:Jig
O:England
A:Leeds
N:Where '$' is shown above the stave this represents  the '$' as in D.S.
N:- dal segno. They are actually  above and below the first bar line and
N:the  double bar at the start of the minor section, which also has a D.C
H:1831
Z:vmp.Cherri Graebe
K:Cmaj

%Error : Malformed note : expecting a-g or A-G

%Error : Unrecognized character: t

%Error : Unrecognized character: h

%Error : Unrecognized character: t

%Error : Unrecognized character: r

%Error : Unrecognized character: t

%Error : Unrecognized character: o

%Error : Unrecognized character: t

%Error : Unrecognized character: h

%Error : Unrecognized character: m

%Error : Unrecognized character: i

%Error : Unrecognized character: n

%Error : Unrecognized character: o

%Error : Unrecognized character: r

%Error : Unrecognized character: t

%Error : Unrecognized character: i

%Error : Unrecognized character: o

%Error : Unrecognized character: n

%Error : Unrecognized character: ,

%Error : Unrecognized character: w

%Error : Unrecognized character: h

%Error : Unrecognized character: i

%Error : Unrecognized character: h

%Error : Unrecognized character: l

%Error : Unrecognized character: o

%Error : Unrecognized character: h
"No time sig.in ms"B se c B  sBG G es es e A,.G,
G/2F/2 | "$" EGc EGc | {B}AGA d2c | BAB GAB | (cBc) e2 (G/2F/2) | EGc EG
c |
%Error : '!' or '+' in middle of line ignored
 {B}AGA d2c | BAB GAB | 
ced c2 :|
%Error : Bar 9 is 5/8 not 6/8
| G 
%Error : Bar 10 is 1/8 not 6/8
| E2GD2G | {D}CB,C B,2G | E2GD2G |
%Error : '!' or '+' in middle of line ignored
 {G}^FEF GAB | (c3e2)G | {
B}(AGA) (c2^c) 
%Error : Bar 16 is 7/8 not 6/8
|
{e}(d^cd) fed | =cBA GAF"AC" || "$   Minore" E 
%Error : Bar 19 is 1/8 not 6/8
| {B}A^GA AGA |
%Error : '!' or '+' in middle of line ignored
 cef e2c
| B
dc BA^G | A2cE2E | {B}A^GA {B}AGA | d^cd fed | cBA BA^G | AEc "A. Gapo"
A2 
%Error : Bar 27 is 5/8 not 6/8
||


